X:1
T:Back to the Blessèd Old Bible
T:Back to the Blessèd Old Bible
T:Daniel Otis Teasley
T:Daniel Otis Teasley, 1901
T:Public Domain Courtesy of the Cyber Hymnal™
T:Public Domain Courtesy of the Cyber Hymnal™
C:Daniel Otis Teasley
Z:Public Domain
Z:Courtesy of the Cyber Hymnal™
%%score ( 1 2 ) ( 3 4 )
L:1/8
Q:1/4=95
M:6/8
K:D
V:1 treble 
V:2 treble 
V:3 bass 
V:4 bass 
V:1
 [FA]>[FA][FA] [DF]>[EG][FA] | [GB]3 [FA]3 | [DF]>[DF][DF] [DF]>[DE]D | [CE]3- [CE]2 z | %4
w: 1.~Back to the bless- èd old|Bi- ble,|Back to the ci- ty of|God, *|
w: 2.~Back to the bless- èd old|Bi- ble,|Saints of Je- ho- vah, re-|joice; *|
w: 3.~Back to the bless- èd old|Bi- ble,|Leav- ing con- fu- sion and|strife; *|
w: 4.~Back to the bless- èd old|Bi- ble,|Back at the Ma- s- ter’s|call, *|
 [FA]>[FA][FA] [DF]>[EG][FA] | [GB]3 [FA]3 | [Ec]>[DB][CA] [EB]>[EA][E^G] | [EA]3- [EA]2 z | %8
w: Back to the one- ness of|Hea- ven,|Back where the faith- ful have|trod. *|
w: Je- sus is call- ing His|peo- ple|Back to the land of their|choice. *|
w: Flee- ing from Ba- bel to|Zi- on,|Back to the joy of our|life. *|
w: Back to the words of our|Sav- ior,|Lov- ing, o- bey- ing them|all. *|
 [FA]>[FA][FA] [DF]>[EG][FA] | [GB]3 [FA]3 | [GB]>[GB][GB] [Ad]>[Gc][Fd] | [Ae]3- [Ae]2 z | %12
w: Back from the land of con-|fu- sion,|Free from the bond- age of|creeds; *|
w: Oft- en our fa- thers had|sought it|While they in Ba- bel a-|bode, *|
w: O- ver the mount- ain we|wan- dered,|Look- ing in vain for the|right, *|
w: Ne- ver in sects to be|scat- tered,|Ne- ver a- gain to do|wrong: *|
 [Af]>[Ae][Ad] [Ge]>[Gd][GB] | [FA]3 [Fd]3 | [DF]>[DF][DF] [DF]2 [CE] | [A,D]3- [A,D]2 z || %16
w: Back to the light of the|morn- ing,|Je- sus our Ca- ptain|leads. *|
w: Now we have found the fair|ci- ty,|Church of the liv- ing|God. *|
w: Now in the even- ing we’ve|found it,|Truth of the Gos- pel|light. *|
w: Un- i- ty, ho- li- ness,|Hea- ven,|Ev- er shall be our|song. *|
"^Refrain" [FA]>[FA][FA] [DF]>[DA][Fd] | [Fd]3 [Ec]3 | [Ec]>[DB][CA] [EB]>[EA][E^G] | %19
w: |||
w: Back to the bless- èd old|Bi- ble,|Back to the light of its|
w: |||
w: |||
 [EA]3- [EA]2 z | [FA]>[FA][FA] [DF]>[FA][Ad] | [Gd]3 [GB]3 | [Gc]>[GB][GA] [GA]>[GB][Gc] | %23
w: ||||
w: word: *|Be on our ban- ners for-|ev- er,|“Ho- li- ness un- to the|
w: ||||
w: ||||
 [Fd]3- [Fd]2 z |] %24
w: |
w: Lord.” *|
w: |
w: |
V:2
 x6 | x6 | x5 D | x6 | x6 | x6 | x6 | x6 | x6 | x6 | x6 | x6 | x6 | x6 | x6 | x6 || x6 | x6 | x6 | %19
 x6 | x6 | x6 | x6 | x6 |] %24
V:3
 [D,D]>[D,D][D,D] [D,A,]>[D,A,][D,D] | [D,D]3 [D,D]3 | [D,A,]>[D,A,][D,A,] [D,A,]>[D,G,][D,F,] | %3
 [A,,A,]3- [A,,A,]2 z | [D,D]>[D,D][D,D] [D,A,]>[D,A,][D,D] | [D,D]3 [D,D]3 | %6
 [E,A,]>[E,^G,][E,A,] [E,D]>[E,C][E,B,] | [A,,C]3- [A,,C]2 z | %8
 [D,D]>[D,D][D,D] [D,A,]>[D,A,][D,D] | [D,D]3 [D,D]3 | [G,D]>[G,D][G,D] [F,A,]>[E,A,][D,D] | %11
 [A,C]3- [A,C]2 z | [D,D]>[E,C][F,D] [G,B,]>[G,B,][G,D] | [D,D]3 [D,A,]3 | %14
 [A,,A,]>[A,,A,][A,,A,] [A,,A,]2 [A,,G,] | [D,F,]3- [D,F,]2 z || %16
 [D,D]>[D,D][D,D] [D,A,]>[D,F,][D,A,] | [D,A,]3 [E,A,]3 | [E,A,]>[E,A,][E,A,] [E,D]>[E,C][E,B,] | %19
 [A,,A,C]3- [A,,A,C]2 z | [D,D]>[D,D][D,D] [D,A,]>[D,A,][F,A,] | [G,B,]3 [G,D]3 | %22
 A,>A,A, [A,,A,]>[A,,A,][A,,A,] | [D,A,]3- [D,A,]2 z |] %24
V:4
 x6 | x6 | x6 | x6 | x6 | x6 | x6 | x6 | x6 | x6 | x6 | x6 | x6 | x6 | x6 | x6 || x6 | x6 | x6 | %19
 x6 | x6 | x6 | A,>A,A, x3 | x6 |] %24

